X:1
T:The Wondrous Advent
T:The Wondrous Advent
T:R. Frank Lehman
T:Flora Kirkland, 1901
T:Public Domain Courtesy of the Cyber Hymnal™
T:Public Domain Courtesy of the Cyber Hymnal™
C:R. Frank Lehman
Z:Public Domain
Z:Courtesy of the Cyber Hymnal™
%%score ( 1 2 ) ( 3 4 )
L:1/8
Q:1/4=100
M:4/4
K:F
V:1 treble 
V:2 treble 
V:3 bass 
V:4 bass 
V:1
 [FA]2 C>C [CF]2 [FA]2 | [^Gd]4 [Ac]4 | [FA]2 [FA]>[Fc] [^FB]2 [FA]2 | (G4 D2) z2 | %4
w: 1.~Light from a sta- ble|shin- ing,|Mus- ic from an- gel|choir; *|
w: 2.~Beau- ti- ful in- fant|Sav- ior!|Ly- ing so low- ly|there! *|
w: 3.~Won- der- ful King of|glo- ry,|Com- ing to save the|world, *|
 [GB]2 D>D [DG]2 [GB]2 | [Ge]4 [Gd]4 | [Ec]2 [EG]>[EG] [^D^F]2 [EG]2 | [FA]6 z2 || %8
w: Hail- ing the won- drous|ad- vent,|Ev- ery true heart’s de-|sire.|
w: Smil- ing up- on Thy|mo- ther,|Guard- ed by an- gels|fair.|
w: O- ver Thy hal- lowed|man- ger,|Love is for aye un-|furled.|
"^Refrain" [CFA]2 z2 [CFA]2 z3/2 C/ | [A,F]>C [A,F]>[CFA] [FAd]2 [FAc]2 | %10
w: ||
w: Hark! hark! we|al- most hear them sing- ing;|
w: ||
 .[CEB]2 z2 .[CEB]2 z3/2 C/ | [CE]>C [G,CE]>[CEA] [EBd]2 [EBc]2 | .[FA]2 z2 [CF]3 [CF] | %13
w: |||
w: Hark! hark! how|clear the voic- es ring- ing;|Come! come! your|
w: |||
 [Fd]2 [^Fc]2 [GB]2 [DG]2 | [CF]>[CF] [CE]>[CF] [FG]2 [Ec]2 | [FA]4- [FA]3/2 z/ z2 | %16
w: |||
w: wor- ship bring- ing,|Bow be- fore the in- fant|King, *|
w: |||
 z2 F2 [FG]2 [Ec]2 | [FA]4- [FA]3/2 z/ z2 | z2 F2 !fermata![FG]2 !fermata![Ec]2 | [CF]6 z2 |] %20
w: ||||
w: the in- fant|King, *|the in- fant|King.|
w: ||||
V:2
 x2 C>C x4 | x8 | x8 | D6 x2 | x2 D>D x4 | x8 | x8 | x8 || x8 | x8 | x8 | x8 | x8 | x8 | x8 | x8 | %16
 x2 F2 x4 | x8 | x2 F2 x4 | x8 |] %20
V:3
 [F,C]2 [F,A,]>[F,A,] [F,A,]2 [F,C]2 | [F,=B,]4 [F,C]4 | [F,C]2 [F,C]>[F,A,] [D,D]2 [D,C]2 | %3
w: ~ ~ ~ ~ ~|~ ~|~ ~ ~ ~ ~|
 [G,B,]6 z2 | [G,D]2 [G,B,]>[G,B,] [G,B,]2 [G,D]2 | [G,B,]4 [G,B,]4 | %6
w: ~|~ ~ ~ ~ ~|~ ~|
 [C,G,]2 [C,C]>[C,C] [C,C]2 [C,C]2 | [F,C]6 z2 || (.[F,,F,]2 .[C,,C,]2) (.[F,,F,]2 .[C,,C,]2) | %9
w: ~ ~ ~ ~ ~|~|~ * ~ *|
 [F,,F,]2 [C,,C,]2 [F,,F,]2 [C,,C,]2 | ([G,,G,]2 [C,,C,]2) ([G,,G,]2 [C,,C,]2) | %11
w: ~ ~ ~ ~|~ * ~ *|
 [F,,G,]2 [C,,C,]2 [G,,G,]2 [C,,C,]2 | .[F,C]2 z2 [F,A,]3 [F,A,] | B,2 [A,C]2 [G,D]2 [B,,B,]2 | %14
w: ~ ~ ~ ~|~ ~ ~|~ ~ ~ ~|
 [C,A,]>[C,A,] [C,G,]>[C,A,] [C,C]2 [C,C]2 | [F,C]4- [F,C]>!<(!C, D,>E, | %16
w: ~ ~ ~ ~ ~ ~|~ * ~ ~ A-|
 G,2!<)! [F,A,]2 [C,C]2 [C,C]2 | [F,C]4- [F,C]>!<(!C, D,>E, | %18
w: dore be- fore ~|~ * A- dore be-|
 G,2!<)! [F,A,]2 !fermata![C,C]2 !fermata![C,B,]2 | [F,,F,A,]6 z2 |] %20
w: fore * * *||
V:4
 x8 | x8 | x8 | x8 | x8 | x8 | x8 | x8 || x8 | x8 | x8 | x8 | x8 | B,2 x6 | x8 | x11/2 C,/ D,>E, | %16
 G,2 x6 | x11/2 C,/ D,>E, | G,2 x6 | x8 |] %20

